X: 171
T: Captives I Am Bringing
C: Teton Sioux band 1911-1914
N: Derived from sioux166.krn
O: South Dakota, U.S.A.
N: Teton Sioux Music by Frances Densmore, 1918
Z: transcribed to **kern format by Craig Sapp
L: 1/8
M: 3/4
Q: 1/4=58
K: E clef=bass
%%linebreak <none>
E/ [I:setbarnb 1]| 
E< C-C2E/ C3/ | 
C> ^B,C2-C3/ E/ | 
E< C-C2E/ C3/ | 
^B,> G,B,4 | 
^B,4C/ B,3/ | 
B,> G, B, B,- B, G, | 
F,< F,F,3G, | 
G,< F,-F,2G,/ F,3/ | 
F, D,F,4 ||  
[M:2/4]C,< C,- C, C, ||  
[M:3/4]C,6 ||  
[M:2/4]C< C-C2 | 
C2(C/ ^B,3/) | 
C< C- C ^B, | 
C2C2 | 
C< C-C2 | 
C2C2 | 
C B,- B,3/ G,/ ||  
[M:3/4]B,2B,4 | 
B,4C/ B,3/ | 
B,> G, B, B,- B, G, | 
F, F,F,4 | 
G,< F,-F,2G,/ F,3/ | 
F,> D,F,4 ||  
[M:2/4]C, C,- C, C, | 
C,2C,2 |]  



